assets/images/cartMobile.svg

<svg width="35" height="35" viewBox="0 0 35 35" fill="none" xmlns="http://www.w3.org/2000/svg">
<circle cx="17.5" cy="17.5" r="17.5" fill="#001AA5"/>
<path d="M12.4323 16.8592C12.2831 15.6654 13.2139 14.6111 14.4169 14.6111H20.5832C21.7862 14.6111 22.7169 15.6654 22.5677 16.8592L22.0214 21.2295C21.8963 22.2304 21.0455 22.9815 20.0369 22.9815H14.9632C13.9546 22.9815 13.1037 22.2304 12.9786 21.2295L12.4323 16.8592Z" stroke="white" stroke-width="2" stroke-linecap="round"/>
<path d="M20.7408 14.2593C20.7408 12.4695 19.2898 11.0186 17.5 11.0186C15.7102 11.0186 14.2593 12.4695 14.2593 14.2593" stroke="white" stroke-width="2"/>
</svg>

<svg width="35" height="35" fill="none" xmlns="http://www.w3.org/2000/svg"><circle cx="17.5" cy="17.5" r="17.5" fill="#001AA5"/><path d="M12.432 16.86a2 2 0 011.985-2.249h6.166a2 2 0 011.985 2.248l-.547 4.37a2 2 0 01-1.984 1.753h-5.074a2 2 0 01-1.984-1.752l-.547-4.37z" stroke="#fff" stroke-width="2" stroke-linecap="round"/><path d="M20.74 14.26a3.24 3.24 0 00-6.48 0" stroke="#fff" stroke-width="2"/></svg>
